public/assets/images/zara.svg

<svg xmlns="http://www.w3.org/2000/svg" width="96" height="112" viewBox="0 0 96 112"><path d="M48 112C21.49 112 0 86.928 0 56S21.49 0 48 0s48 25.072 48 56-21.49 56-48 56z" fill="#E0E0E0"/><path d="M47.12 106.9c-21.353 0-38.663-22.138-38.663-49.445 0-27.308 17.31-49.445 38.663-49.445 21.352 0 38.662 22.137 38.662 49.445 0 27.307-17.31 49.444-38.662 49.444z" fill="#644323"/><path d="M33.75 61.05c-1.097 0-1.986-.89-1.986-1.987 0-1.098.89-1.987 1.987-1.987 1.1 0 1.99.89 1.99 1.987 0 1.098-.89 1.988-1.99 1.988zm26.595.914c-1.098 0-1.988-.89-1.988-1.988 0-1.098.89-1.988 1.988-1.988 1.098 0 1.987.89 1.987 1.988 0 1.098-.89 1.988-1.987 1.988zM46.22 120.398v.346-.346z"/><path d="M46.433 65.553s6.882 9.938 3.518 10.035c-3.36.096-5.24.103-5.26-.04" fill="#472F19"/><path d="M42.154 86.868s3.355 11.177 9.13.86" stroke="#000" stroke-width="2" fill="none"/><path d="M64.708 37.518s-28.48 1.31-30.116-1.557l14.544-5.7s-17.84-.523-27.99 8.79C15.45 44.27 6.424 63.33 6.424 63.33S4.61 54.446 4.99 44.128c.383-10.317 6.985-23.04 11.57-25.334 4.586-2.293 24.47-11.94 28.523-11.56 4.053.383-17.308 4.796-17.308 4.796S51.19-1.248 62.343 4.866c11.154 6.114 18.308 7.738 21.46 16.622 2.61 7.355 11.106 20.204 5.23 28.014-2.442 3.247-1.862 18.843-1.862 18.843s-7.56-23.567-11.76-27.77c-4.202-4.203-10.7-3.057-10.7-3.057z"/></svg>

<?xml version="1.0" encoding="UTF-8"?>
<!DOCTYPE svg PUBLIC "-//W3C//DTD SVG 1.1//EN" "http://www.w3.org/Graphics/SVG/1.1/DTD/svg11.dtd">
<svg version="1.1" xmlns="http://www.w3.org/2000/svg" xmlns:xlink="http://www.w3.org/1999/xlink" x="0" y="0" width="96" height="112" viewBox="0, 0, 96, 112">
  <g id="zara" transform="translate(0, 0)">
    <path d="M47.12,106.899 C25.767,106.899 8.457,84.762 8.457,57.455 C8.457,30.147 25.767,8.01 47.12,8.01 C68.472,8.01 85.782,30.147 85.782,57.455 C85.782,84.762 68.472,106.899 47.12,106.899 z" fill="#744E29"/>
    <path d="M33.823,63.42 C31.669,63.42 29.922,61.674 29.922,59.52 C29.922,57.365 31.669,55.619 33.823,55.619 C35.977,55.619 37.723,57.365 37.723,59.52 C37.723,61.674 35.977,63.42 33.823,63.42 z" fill="#000000"/>
    <path d="M60.416,64.333 C58.262,64.333 56.516,62.587 56.516,60.433 C56.516,58.278 58.262,56.532 60.416,56.532 C62.571,56.532 64.317,58.278 64.317,60.433 C64.317,62.587 62.571,64.333 60.416,64.333 z" fill="#000000"/>
    <path d="M46.219,120.398 L46.219,120.398 L46.219,120.744 L46.219,120.744 L46.219,120.398 z" fill="#000000"/>
    <path d="M46.433,65.553 C46.433,65.553 53.315,75.491 49.951,75.588 C46.587,75.684 44.71,75.691 44.688,75.549" fill="#593B1F"/>
    <path d="M42.154,86.868 C42.154,86.868 45.509,98.045 51.283,87.728" fill-opacity="0" stroke="#000000" stroke-width="2"/>
    <path d="M64.708,37.518 C64.708,37.518 36.229,38.827 34.592,35.961 C34.592,35.961 49.136,30.258 49.136,30.258 C49.136,30.258 31.297,29.733 21.146,39.046 C15.451,44.272 6.424,63.33 6.424,63.33 C6.424,63.33 4.609,54.446 4.991,44.128 C5.373,33.811 11.975,21.087 16.561,18.794 C21.146,16.501 41.03,6.853 45.083,7.235 C49.136,7.617 27.775,12.03 27.775,12.03 C27.775,12.03 51.189,-1.248 62.343,4.866 C73.497,10.98 80.651,12.604 83.803,21.488 C86.413,28.843 94.909,41.692 89.033,49.502 C86.591,52.749 87.171,68.345 87.171,68.345 C87.171,68.345 79.61,44.778 75.407,40.575 C71.204,36.372 64.708,37.518 64.708,37.518 z" fill="#000000"/>
  </g>
</svg>
